X:13
T:Yellow Tinker, The
C:Traditional
R:reel
M:C|
K:GMix
DG G2 DEFE | DG G2 dBcA | G2 GF DEFG |[1 cAFA c2BA :|[2 cAFA c2Bc |]
dG G2 GABc | dggd ^fgaf | gG G2 BcdB | cAFA c2Bc |
dG G2 GABc | dggd ^fgaf | g2ae ^fgae | ^fgag fdcA |
d2BG BdBG | BdBG c2Bc | d2 BG Bcde | fecA FABc |
d2BG BdBG | BdBG c2Bc | d2 de f2 fe | cAFA G2GF |]

